X:344
T:Reel 344
M:4/4
K:Gmaj
L:1/8
a|g2dc BcdB|ABcd eAAf|g2dc BcdB|cedc BGGf|gfgd BcdB|cBdB cdef|gfgd egdB|cedc BGG|A|BGDG BcdB|ABcd eAAc|BGDG BcdB|cedc BGGA|BGDG BcdB|ABcd edef|gfgd egdB|cedc BGG|
